!! 00008] TT[TB
!! MZ 775 ?
!!!OTL: Liu zhi dan
!!!ARE: Asia, China, Shanxi Shanbei
!! Ethnic Group: Han
!! I, 40, 2)
!!!SCT: C0005
!!!YEM: Copyright 1995, estate of Helmut Schaffrath.
**kern
*ICvox
*Ivox
*M2/4
*k[b-e-a-d-]
*A-:
{8.ee-
16cc
8b-
8a-
=1
8b-
8e-
4f}
=2
{8.ee-
16cc
8b-
16a-
16a-
=3
8b-
8e-
4f}
=4
{8.ee-
16ff
8ee-
8ff
=5
8ee-
8cc
4b-}
=6
{8a-
4a-
8f
=7
8e-
8c
4B-}
=8
{8ee-
16ee-
16cc
8b-
8ee-
=9
4b-
8a-
8f
=10
8e-
8f
8e-
8c
=11
2B-}
==
!!!AGN: Xiaodiao, Da ningxia diao. Geming lishi minge
!! neues Volkslied; sehr bekannt. Total verkratzte Schallplatte.
!!    Arrangiert f. Klv. und Oboe. Text mit Mao Zidong.
!!!ONB: ESAC (Essen Associative Code) Database: CHINA
!!!AMT: simple duple
!!!AIN: vox
!!!EED: Helmut Schaffrath
!!!EEV: 1.0
*-
